packages/ffe-icons/icons/open/400/sm/picture_in_picture_small.svg

<svg xmlns="http://www.w3.org/2000/svg" height="20" viewBox="0 -960 960 960" width="20"><path d="M132-192q-15.3 0-25.65-10.289Q96-212.579 96-227.789 96-243 106.35-253.5 116.7-264 132-264h660v-467.709Q792-747 802.289-757.5q10.29-10.5 25.5-10.5Q843-768 853.5-757.644 864-747.288 864-731.98v468.263Q864-234 842.85-213T792-192H132Zm336.283-144Q453-336 442.5-346.334 432-356.668 432-371.945v-143.779Q432-531 442.338-541.5 452.677-552 467.96-552h215.757Q699-552 709.5-541.666q10.5 10.334 10.5 25.611v143.779Q720-357 709.662-346.5 699.323-336 684.04-336H468.283Z"/></svg>

<svg xmlns="http://www.w3.org/2000/svg" height="20" viewBox="0 -960 960 960" width="20"><path d="M132-192q-15.3 0-25.65-10.29Q96-212.58 96-227.79t10.35-25.71Q116.7-264 132-264h660v-467.71q0-15.29 10.29-25.79t25.5-10.5q15.21 0 25.71 10.36 10.5 10.35 10.5 25.66v468.26Q864-234 842.85-213T792-192H132Zm336.28-144q-15.28 0-25.78-10.33-10.5-10.34-10.5-25.61v-143.78q0-15.28 10.34-25.78 10.34-10.5 25.62-10.5h215.76q15.28 0 25.78 10.33 10.5 10.34 10.5 25.61v143.78q0 15.28-10.34 25.78-10.34 10.5-25.62 10.5H468.28Z"/></svg>
